src/assets/modalgallery.svg

<svg xmlns="http://www.w3.org/2000/svg" viewBox="449 -115 363 379">
  <g fill="none">
    <path fill="#fff" d="M0 0h361.50093v502.6366H0z"/>
    <path fill="#000" fill-opacity=".37467894" d="M450-76.3355h361.50093V263.5H450z"/>
    <path fill="#e5e5e5" d="M569.2435 39.37165h134.73907v134.73907H569.2435zM727.9539 83.72734h46.00846v46.00846H727.9539zM488.93517 83.73695h46.00846v46.00846h-46.00846zM581.1564 215.1897h30.39845v30.39845H581.1564zM621.4138 215.1897h30.39845v30.39845H621.4138zM661.6712 215.1897h30.39845v30.39845H661.6712z"/>
    <text fill="#505050" fill-opacity=".7544146" transform="translate(786.9241 98.54519)">
      <tspan x="5.5884344" y="13" font-family="Helvetica Neue" font-size="14" font-weight="500" textLength="8.4">&gt;</tspan>
    </text>
    <text fill="#505050" fill-opacity=".7544146" transform="translate(455 98.54519)">
      <tspan x="5.5884344" y="13" font-family="Helvetica Neue" font-size="14" font-weight="500" textLength="8.4">&lt;</tspan>
    </text>
    <text fill="#505050" fill-opacity=".7544146" transform="translate(702.27485 222.19293)">
      <tspan x="5.5884344" y="13" font-family="Helvetica Neue" font-size="14" font-weight="500" textLength="8.4">&gt;</tspan>
    </text>
    <text fill="#505050" fill-opacity=".7544146" transform="translate(551.19266 222.19293)">
      <tspan x="5.5884344" y="13" font-family="Helvetica Neue" font-size="14" font-weight="500" textLength="8.4">&lt;</tspan>
    </text>
    <path fill="#ccc" d="M625.8989 132.00969l15.9779-31.75532c.7447-1.48006 2.54825-2.07618 4.0283-1.33148.5799.29176 1.04944.76371 1.3383 1.34502l15.81746 31.83554c.73724 1.4838.13204 3.2843-1.35176 4.02153-.4171.20722-.8767.3145-1.3425.31332l-31.7954-.08022c-1.65685-.00418-2.9966-1.35071-2.9924-3.00756.00116-.46573.11075-.92479.3201-1.34083z"/>
    <path fill="#c9c9c9" d="M601.2804 131.98174l21.5446-42.81868c.7447-1.48006 2.5482-2.07618 4.02826-1.33148.57984.29176 1.04944.76371 1.33824 1.34502l21.3282 42.92685c.73724 1.4838.132 3.2843-1.3518 4.02153-.4171.20722-.8767.3145-1.3424.31332l-42.8728-.10817c-1.6568-.00418-2.9966-1.35071-2.9924-3.00756.0012-.46573.1108-.92479.3201-1.34083z"/>
    <path fill="#ccc" d="M508.60744 118.60785l8.47966-16.85286c.49646-.98671 1.6988-1.38413 2.6855-.88766.3866.19451.69964.50914.8922.89668l8.3945 16.89545c.49147.9892.088 2.18953-.9012 2.68101-.2781.13816-.5845.20967-.895.20889l-16.8741-.04258c-1.1046-.00278-1.99775-.90047-1.99496-2.00504.00076-.31048.07386-.61653.2134-.89389z"/>
    <path fill="#c9c9c9" d="M494.7595 118.5922l11.6109-23.07614c.4965-.98671 1.69884-1.38412 2.68555-.88766.38655.19451.69962.50914.89215.89669l11.49436 23.13443c.49148.9892.088 2.18953-.9012 2.68102-.27806.13815-.58446.20967-.89496.20889l-23.1053-.0583c-1.10454-.00279-1.9977-.90048-1.9949-2.00504.00077-.31049.0738-.61653.2134-.89389z"/>
    <path fill="#ccc" d="M747.6264 118.598l8.4794-16.85238c.4965-.9867 1.6988-1.38412 2.68555-.88765.38655.1945.69965.50914.89215.89668l8.3943 16.89495c.49145.9892.088 2.18953-.9012 2.68101-.2781.13816-.5845.20968-.895.20889l-16.8736-.04257c-1.1046-.00279-1.9978-.90048-1.995-2.00504.0008-.31049.0739-.61653.2134-.89389z"/>
    <path fill="#c9c9c9" d="M733.7785 118.58227l11.61065-23.07551c.49645-.9867 1.69885-1.38412 2.68555-.88765.3865.1945.6996.50914.89214.89668l11.49406 23.13381c.4915.9892.088 2.18953-.9012 2.68101-.2781.13816-.5845.20968-.895.20889l-23.1046-.0583c-1.1046-.00278-1.9978-.90047-1.995-2.00503.0008-.31049.0739-.61654.2134-.8939z"/>
    <path fill="#333" d="M774.3383-4.715816c-2.2114-2.211427-5.1468-3.427958-8.2744-3.427958-3.1275 0-6.0629 1.216531-8.2743 3.427958-2.2115 2.211427-3.428 5.14686236-3.428 8.2743816 0 3.1275194 1.2165 6.0629544 3.428 8.2743814 2.2114 2.211427 5.1468 3.427958 8.2743 3.427958 3.1276 0 6.063-1.216531 8.2744-3.427958 2.21145-2.211427 3.428-5.146862 3.428-8.2743814 0-3.12751924-1.21655-6.0629546-3.428-8.2743816zm-.9407 15.608045c-1.9602 1.96024-4.5657 3.038865-7.3337 3.038865-2.7679 0-5.3734-1.078625-7.3336-3.038865-4.0436-4.043612-4.0436-10.62371513 0-14.6673266 1.9602-1.9602404 4.5657-3.0388654 7.3336-3.0388654 2.768 0 5.3735 1.078625 7.3337 3.0388654 4.0436 4.04361147 4.0436 10.6237146 0 14.6673266z"/>
    <path fill="#333" d="M771.22065-1.5981472c-.26105-.2610371-.67965-.2610371-.94075 0l-4.216 4.2159944-4.216-4.2159944c-.261-.2610371-.6796-.2610371-.9407 0-.261.261037-.261.6796813 0 .9407184l4.216 4.2159944-4.216 4.2159944c-.261.261037-.261.679681 0 .940718.1281.128056.3005.197009.4679.197009.1675 0 .3399-.064027.4679-.197009l4.216-4.215994 4.216 4.215994c.1281.128056.3004.197009.4679.197009.1724 0 .3398-.064027.4679-.197009.261-.261037.261-.679681 0-.940718l-4.2061-4.2159944 4.21595-4.2159944c.26105-.2610371.26105-.6796814 0-.9407184zM738.9026 3.265981c-.3725 0-.6705.2980224-.6705.67055v6.099522c0 1.65899-1.3511 3.005057-3.0051 3.005057h-14.7124c-1.65895 0-3.005-1.351034-3.005-3.005057V3.8371904c0-.3725278-.298-.67055-.6706-.67055-.3725 0-.6705.2980222-.6705.67055v6.1988626c0 2.399079 1.952 4.346157 4.3461 4.346157h14.7124c2.3991 0 4.3462-1.952045 4.3462-4.346157V3.936531c0-.3675606-.2981-.67055-.6706-.67055z"/>
    <path fill="#333" d="M727.39896 9.057547c.12914.129143.30298.198681.47184.198681.1689 0 .34275-.064571.4719-.198681l4.2617-4.2617184c.2633-.263253.2633-.6854511 0-.9487041-.2632-.263253-.6854-.263253-.9487 0l-3.1143 3.1192995V-6.638291c0-.372528-.29805-.67055-.6706-.67055-.3725 0-.6705.298022-.6705.67055V6.966424l-3.1193-3.1192995c-.2633-.263253-.6855-.263253-.9487 0-.2633.263253-.2633.6854511 0 .9487041z"/>
    <path fill="#ccc" d="M594.0227 239.17577l6.0312-11.98665c.49645-.98671 1.6988-1.38412 2.6855-.88765.3866.1945.6996.50913.8922.89668l5.9706 12.01693c.4915.9892.088 2.18954-.9012 2.68102-.27806.13815-.5845.20967-.89496.2089l-12.00179-.0303c-1.10455-.00278-1.99775-.90047-1.99495-2.00503.0008-.31049.07385-.61654.2134-.8939z"/>
    <path fill="#c9c9c9" d="M583.0646 239.16333l8.509-16.91113c.4965-.9867 1.6988-1.38412 2.6855-.88765.3866.1945.69965.50915.8922.89668l8.4235 16.95385c.4915.9892.088 2.18954-.9012 2.68102-.27804.13815-.58444.20967-.8949.2089l-16.9325-.04273c-1.1046-.00279-1.99776-.90047-1.995-2.00504.0008-.31049.0739-.61653.2134-.8939z"/>
    <path fill="#ccc" d="M634.2801 239.16057l6.0312-11.98666c.49646-.98671 1.6988-1.38411 2.6855-.88765.3866.1945.6996.50914.8922.89668l5.9706 12.01694c.4915.9892.088 2.18952-.9012 2.68102-.27806.13815-.5845.20966-.89495.20888l-12.0018-.03028c-1.10455-.0028-1.99775-.90048-1.99495-2.00504.0008-.31049.07385-.61653.2134-.89389z"/>
    <path fill="#c9c9c9" d="M623.322 239.14813l8.509-16.91113c.4965-.9867 1.6988-1.38413 2.6855-.88766.3866.19451.69965.50914.8922.89668l8.4235 16.95386c.4915.9892.088 2.18952-.9012 2.68102-.278.13815-.58444.20966-.8949.20888l-16.9325-.04272c-1.1046-.00279-1.99775-.90048-1.995-2.00504.0008-.31049.0739-.61653.2134-.89389z"/>
    <path fill="#ccc" d="M674.9912 239.14536l6.0312-11.98666c.4965-.9867 1.6988-1.38412 2.68555-.88765.38655.19451.69965.50915.89215.89668l5.9706 12.01694c.4915.9892.088 2.18953-.9012 2.68101-.278.13816-.5844.20968-.8949.20889l-12.0018-.03027c-1.1046-.0028-1.99775-.90048-1.995-2.00505.0008-.31049.0739-.61653.2134-.89389z"/>
    <path fill="#c9c9c9" d="M664.0332 239.13292l8.5089-16.91112c.4965-.98672 1.69886-1.38413 2.6856-.88766.3865.1945.6996.50914.8921.89668l8.42355 16.95385c.49145.9892.08805 2.18953-.90115 2.68101-.2781.13816-.5845.20968-.895.20889l-16.9325-.04272c-1.10455-.00279-1.9977-.90047-1.9949-2.00505.00075-.31048.0738-.61652.2134-.89388z"/>
    <ellipse cx="619.72485" cy="194.6502" fill="#e5e5e5" rx="4.5401336" ry="5.3402765"/>
    <ellipse cx="636.613" cy="194.6502" fill="#e5e5e5" rx="4.5401336" ry="5.3402765"/>
    <ellipse cx="653.5012" cy="194.6502" fill="#e5e5e5" rx="4.5401336" ry="5.3402765"/>
    <circle cx="582.7327" cy="21.11957" r="11.731848" fill="#000"/>
    <circle cx="502.4244" cy="66.312434" r="11.731848" fill="#4040ff"/>
    <circle cx="707.2689" cy="-20.603667" r="11.731848" fill="#ff4040"/>
    <circle cx="673.4787" cy="190.885" r="11.731848" fill="#54d6ff"/>
    <circle cx="567.72836" cy="209.03884" r="11.731848" fill="#ff9300"/>
    <text fill="#fff" transform="translate(574.5874 12.92357)">
      <tspan x="4.253275" y="13" font-family="Helvetica Neue" font-size="14" font-weight="500" textLength="7.784">1</tspan>
    </text>
    <text fill="#fff" transform="translate(494.57023 58.116435)">
      <tspan x="4.253275" y="13" font-family="Helvetica Neue" font-size="14" font-weight="500" textLength="7.784">2</tspan>
    </text>
    <text fill="#fff" transform="translate(699.1236 -28.799666)">
      <tspan x="4.253275" y="13" font-family="Helvetica Neue" font-size="14" font-weight="500" textLength="7.784">3</tspan>
    </text>
    <text fill="#fff" transform="translate(664.7987 182.689)">
      <tspan x="4.253275" y="13" font-family="Helvetica Neue" font-size="14" font-weight="500" textLength="7.784">4</tspan>
    </text>
    <text fill="#fff" transform="translate(559.5831 200.84284)">
      <tspan x="4.253275" y="13" font-family="Helvetica Neue" font-size="14" font-weight="500" textLength="7.784">5</tspan>
    </text>
    <circle cx="466.4316" cy="-57.43916" r="11.731848" fill="#ff40ff"/>
    <text fill="#fff" transform="translate(458.2863 -65.63516)">
      <tspan x="4.253275" y="13" font-family="Helvetica Neue" font-size="14" font-weight="500" textLength="7.784">6</tspan>
    </text>
    <circle cx="633.59935" cy="-95.23183" r="11.731848" fill="#999"/>
    <text fill="#fff" transform="translate(625.4541 -103.42783)">
      <tspan x="4.253275" y="13" font-family="Helvetica Neue" font-size="14" font-weight="500" textLength="7.784">7</tspan>
    </text>
  </g>
</svg>

<?xml version="1.0" encoding="UTF-8" standalone="no"?>
<!DOCTYPE svg PUBLIC "-//W3C//DTD SVG 1.1//EN" "http://www.w3.org/Graphics/SVG/1.1/DTD/svg11.dtd">
<svg xmlns="http://www.w3.org/2000/svg" xmlns:xl="http://www.w3.org/1999/xlink" version="1.1" viewBox="449 -115 363 379" width="363pt" height="379pt" xmlns:dc="http://purl.org/dc/elements/1.1/">
  <metadata> Produced by OmniGraffle 7.5 
    <dc:date>2018-09-29 21:31:19 +0000</dc:date>
  </metadata>
  <defs>
    <font-face font-family="Helvetica Neue" font-size="14" panose-1="2 0 5 3 0 0 0 2 0 4" units-per-em="1000" underline-position="-100" underline-thickness="50" slope="0" x-height="517" cap-height="714" ascent="951.9958" descent="-212.99744" font-weight="500">
      <font-face-src>
        <font-face-name name="HelveticaNeue"/>
      </font-face-src>
    </font-face>
  </defs>
  <g stroke="none" stroke-opacity="1" stroke-dasharray="none" fill="none" fill-opacity="1">
    <title>Canvas 1</title>
    <rect fill="white" width="805.1009" height="502.6366"/>
    <g>
      <title>Layer 1</title>
      <rect x="450" y="-76.3355" width="361.50093" height="339.8355" fill="black" fill-opacity=".37467894"/>
      <rect x="569.2435" y="39.37165" width="134.73907" height="134.73907" fill="#e5e5e5"/>
      <rect x="727.9539" y="83.72734" width="46.00846" height="46.00846" fill="#e5e5e5"/>
      <rect x="488.93517" y="83.73695" width="46.00846" height="46.00846" fill="#e5e5e5"/>
      <rect x="581.1564" y="215.1897" width="30.39845" height="30.39845" fill="#e5e5e5"/>
      <rect x="621.4138" y="215.1897" width="30.39845" height="30.39845" fill="#e5e5e5"/>
      <rect x="661.6712" y="215.1897" width="30.39845" height="30.39845" fill="#e5e5e5"/>
      <text transform="translate(786.9241 98.54519)" fill="#505050" fill-opacity=".7544146">
        <tspan font-family="Helvetica Neue" font-size="14" font-weight="500" fill="#505050" fill-opacity=".7544146" x="5.5884344" y="13" textLength="8.4">&gt;</tspan>
      </text>
      <text transform="translate(455 98.54519)" fill="#505050" fill-opacity=".7544146">
        <tspan font-family="Helvetica Neue" font-size="14" font-weight="500" fill="#505050" fill-opacity=".7544146" x="5.5884344" y="13" textLength="8.4">&lt;</tspan>
      </text>
      <text transform="translate(702.27485 222.19293)" fill="#505050" fill-opacity=".7544146">
        <tspan font-family="Helvetica Neue" font-size="14" font-weight="500" fill="#505050" fill-opacity=".7544146" x="5.5884344" y="13" textLength="8.4">&gt;</tspan>
      </text>
      <text transform="translate(551.19266 222.19293)" fill="#505050" fill-opacity=".7544146">
        <tspan font-family="Helvetica Neue" font-size="14" font-weight="500" fill="#505050" fill-opacity=".7544146" x="5.5884344" y="13" textLength="8.4">&lt;</tspan>
      </text>
      <path d="M 625.8989 132.00969 L 641.8768 100.25437 C 642.6215 98.77431 644.42505 98.17819 645.9051 98.92289 C 646.485 99.21465 646.95454 99.6866 647.2434 100.26791 L 663.06086 132.10345 C 663.7981 133.58725 663.1929 135.38775 661.7091 136.12498 C 661.292 136.3322 660.8324 136.43948 660.3666 136.4383 L 628.5712 136.35808 C 626.91435 136.3539 625.5746 135.00737 625.5788 133.35052 C 625.57996 132.88479 625.68955 132.42573 625.8989 132.00969 Z" fill="#ccc"/>
      <path d="M 601.2804 131.98174 L 622.825 89.16306 C 623.5697 87.683 625.3732 87.08688 626.85326 87.83158 C 627.4331 88.12334 627.9027 88.59529 628.1915 89.1766 L 649.5197 132.10345 C 650.25694 133.58725 649.6517 135.38775 648.1679 136.12498 C 647.7508 136.3322 647.2912 136.43948 646.8255 136.4383 L 603.9527 136.33013 C 602.2959 136.32595 600.9561 134.97942 600.9603 133.32257 C 600.9615 132.85684 601.0711 132.39778 601.2804 131.98174 Z" fill="#c9c9c9"/>
      <path d="M 508.60744 118.60785 L 517.0871 101.75499 C 517.58356 100.76828 518.7859 100.37086 519.7726 100.86733 C 520.1592 101.06184 520.47224 101.37647 520.6648 101.76401 L 529.0593 118.65946 C 529.55077 119.64866 529.1473 120.84899 528.1581 121.34047 C 527.88 121.47863 527.5736 121.55014 527.2631 121.54936 L 510.389 121.50678 C 509.2844 121.504 508.39125 120.60631 508.39404 119.50174 C 508.3948 119.19126 508.4679 118.88521 508.60744 118.60785 Z" fill="#ccc"/>
      <path d="M 494.7595 118.5922 L 506.3704 95.51606 C 506.8669 94.52935 508.06924 94.13194 509.05595 94.6284 C 509.4425 94.82291 509.75557 95.13754 509.9481 95.52509 L 521.44246 118.65952 C 521.93394 119.64872 521.53046 120.84905 520.54126 121.34054 C 520.2632 121.47869 519.9568 121.55021 519.6463 121.54943 L 496.541 121.49113 C 495.43646 121.48834 494.5433 120.59065 494.5461 119.48609 C 494.54687 119.1756 494.6199 118.86956 494.7595 118.5922 Z" fill="#c9c9c9"/>
      <path d="M 747.6264 118.598 L 756.1058 101.74562 C 756.6023 100.75892 757.8046 100.3615 758.79135 100.85797 C 759.1779 101.05247 759.491 101.36711 759.6835 101.75465 L 768.0778 118.6496 C 768.56925 119.6388 768.1658 120.83913 767.1766 121.33061 C 766.8985 121.46877 766.5921 121.54029 766.2816 121.5395 L 749.408 121.49693 C 748.3034 121.49414 747.4102 120.59645 747.413 119.49189 C 747.4138 119.1814 747.4869 118.87536 747.6264 118.598 Z" fill="#ccc"/>
      <path d="M 733.7785 118.58227 L 745.38915 95.50676 C 745.8856 94.52006 747.088 94.12264 748.0747 94.61911 C 748.4612 94.81361 748.7743 95.12825 748.96684 95.51579 L 760.4609 118.6496 C 760.9524 119.6388 760.5489 120.83913 759.5597 121.33061 C 759.2816 121.46877 758.9752 121.54029 758.6647 121.5395 L 735.5601 121.4812 C 734.4555 121.47842 733.5623 120.58073 733.5651 119.47617 C 733.5659 119.16568 733.639 118.85963 733.7785 118.58227 Z" fill="#c9c9c9"/>
      <path d="M 774.3383 -4.715816 C 772.1269 -6.927243 769.1915 -8.143774 766.0639 -8.143774 C 762.9364 -8.143774 760.001 -6.927243 757.7896 -4.715816 C 755.5781 -2.504389 754.3616 .43104636 754.3616 3.5585656 C 754.3616 6.686085 755.5781 9.62152 757.7896 11.832947 C 760.001 14.044374 762.9364 15.260905 766.0639 15.260905 C 769.1915 15.260905 772.1269 14.044374 774.3383 11.832947 C 776.54975 9.62152 777.7663 6.686085 777.7663 3.5585656 C 777.7663 .43104636 776.54975 -2.504389 774.3383 -4.715816 Z M 773.3976 10.892229 C 771.4374 12.852469 768.8319 13.931094 766.0639 13.931094 C 763.296 13.931094 760.6905 12.852469 758.7303 10.892229 C 754.6867 6.848617 754.6867 .26851387 758.7303 -3.7750976 C 760.6905 -5.735338 763.296 -6.813963 766.0639 -6.813963 C 768.8319 -6.813963 771.4374 -5.735338 773.3976 -3.7750976 C 777.4412 .26851387 777.4412 6.848617 773.3976 10.892229 Z" fill="#333"/>
      <path d="M 771.22065 -1.5981472 C 770.9596 -1.8591843 770.541 -1.8591843 770.2799 -1.5981472 L 766.0639 2.6178472 L 761.8479 -1.5981472 C 761.5869 -1.8591843 761.1683 -1.8591843 760.9072 -1.5981472 C 760.6462 -1.3371102 760.6462 -.9184659 760.9072 -.6574288 L 765.1232 3.5585656 L 760.9072 7.77456 C 760.6462 8.035597 760.6462 8.454241 760.9072 8.715278 C 761.0353 8.843334 761.2077 8.912287 761.3751 8.912287 C 761.5426 8.912287 761.715 8.84826 761.843 8.715278 L 766.059 4.499284 L 770.275 8.715278 C 770.4031 8.843334 770.5754 8.912287 770.7429 8.912287 C 770.9153 8.912287 771.0827 8.84826 771.2108 8.715278 C 771.4718 8.454241 771.4718 8.035597 771.2108 7.77456 L 767.0047 3.5585656 L 771.22065 -.6574288 C 771.4817 -.9184659 771.4817 -1.3371102 771.22065 -1.5981472 Z" fill="#333"/>
      <path d="M 738.9026 3.265981 C 738.5301 3.265981 738.2321 3.5640034 738.2321 3.936531 L 738.2321 10.036053 C 738.2321 11.695043 736.881 13.04111 735.227 13.04111 L 720.5146 13.04111 C 718.85565 13.04111 717.5096 11.690076 717.5096 10.036053 L 717.5096 3.8371904 C 717.5096 3.4646626 717.2116 3.1666404 716.839 3.1666404 C 716.4665 3.1666404 716.1685 3.4646626 716.1685 3.8371904 L 716.1685 10.036053 C 716.1685 12.435132 718.1205 14.38221 720.5146 14.38221 L 735.227 14.38221 C 737.6261 14.38221 739.5732 12.430165 739.5732 10.036053 L 739.5732 3.936531 C 739.5732 3.5689704 739.2751 3.265981 738.9026 3.265981 Z" fill="#333"/>
      <path d="M 727.39896 9.057547 C 727.5281 9.18669 727.70194 9.256228 727.8708 9.256228 C 728.0397 9.256228 728.21355 9.191657 728.3427 9.057547 L 732.6044 4.7958286 C 732.8677 4.5325756 732.8677 4.1103775 732.6044 3.8471245 C 732.3412 3.5838715 731.919 3.5838715 731.6557 3.8471245 L 728.5414 6.966424 L 728.5414 -6.638291 C 728.5414 -7.010819 728.24335 -7.308841 727.8708 -7.308841 C 727.4983 -7.308841 727.2003 -7.010819 727.2003 -6.638291 L 727.2003 6.966424 L 724.081 3.8471245 C 723.8177 3.5838715 723.3955 3.5838715 723.1323 3.8471245 C 722.869 4.1103775 722.869 4.5325756 723.1323 4.7958286 Z" fill="#333"/>
      <path d="M 594.0227 239.17577 L 600.0539 227.18912 C 600.55035 226.20241 601.7527 225.805 602.7394 226.30147 C 603.126 226.49597 603.439 226.8106 603.6316 227.19815 L 609.6022 239.21508 C 610.0937 240.20428 609.6902 241.40462 608.701 241.8961 C 608.42294 242.03425 608.1165 242.10577 607.80604 242.105 L 595.80425 242.0747 C 594.6997 242.07192 593.8065 241.17423 593.8093 240.06967 C 593.8101 239.75918 593.88315 239.45313 594.0227 239.17577 Z" fill="#ccc"/>
      <path d="M 583.0646 239.16333 L 591.5736 222.2522 C 592.0701 221.2655 593.2724 220.86808 594.2591 221.36455 C 594.6457 221.55905 594.95875 221.8737 595.1513 222.26123 L 603.5748 239.21508 C 604.0663 240.20428 603.6628 241.40462 602.6736 241.8961 C 602.39556 242.03425 602.08916 242.10577 601.7787 242.105 L 584.8462 242.06227 C 583.7416 242.05948 582.84844 241.1618 582.8512 240.05723 C 582.852 239.74674 582.9251 239.4407 583.0646 239.16333 Z" fill="#c9c9c9"/>
      <path d="M 634.2801 239.16057 L 640.3113 227.17391 C 640.80776 226.1872 642.0101 225.7898 642.9968 226.28626 C 643.3834 226.48076 643.6964 226.7954 643.889 227.18294 L 649.8596 239.19988 C 650.3511 240.18908 649.9476 241.3894 648.9584 241.8809 C 648.68034 242.01905 648.3739 242.09056 648.06345 242.08978 L 636.06165 242.0595 C 634.9571 242.0567 634.0639 241.15902 634.0667 240.05446 C 634.0675 239.74397 634.14055 239.43793 634.2801 239.16057 Z" fill="#ccc"/>
      <path d="M 623.322 239.14813 L 631.831 222.237 C 632.3275 221.2503 633.5298 220.85287 634.5165 221.34934 C 634.9031 221.54385 635.21615 221.85848 635.4087 222.24602 L 643.8322 239.19988 C 644.3237 240.18908 643.9202 241.3894 642.931 241.8809 C 642.653 242.01905 642.34656 242.09056 642.0361 242.08978 L 625.1036 242.04706 C 623.999 242.04427 623.10585 241.14658 623.1086 240.04202 C 623.1094 239.73153 623.1825 239.42549 623.322 239.14813 Z" fill="#c9c9c9"/>
      <path d="M 674.9912 239.14536 L 681.0224 227.1587 C 681.5189 226.172 682.7212 225.77458 683.70795 226.27105 C 684.0945 226.46556 684.4076 226.7802 684.6001 227.16773 L 690.5707 239.18467 C 691.0622 240.17387 690.6587 241.3742 689.6695 241.86568 C 689.3915 242.00384 689.0851 242.07536 688.7746 242.07457 L 676.7728 242.0443 C 675.6682 242.0415 674.77505 241.14382 674.7778 240.03925 C 674.7786 239.72876 674.8517 239.42272 674.9912 239.14536 Z" fill="#ccc"/>
      <path d="M 664.0332 239.13292 L 672.5421 222.2218 C 673.0386 221.23508 674.24096 220.83767 675.2277 221.33414 C 675.6142 221.52864 675.9273 221.84328 676.1198 222.23082 L 684.54335 239.18467 C 685.0348 240.17387 684.6314 241.3742 683.6422 241.86568 C 683.3641 242.00384 683.0577 242.07536 682.7472 242.07457 L 665.8147 242.03185 C 664.71015 242.02906 663.817 241.13138 663.8198 240.0268 C 663.82055 239.71632 663.8936 239.41028 664.0332 239.13292 Z" fill="#c9c9c9"/>
      <ellipse cx="619.72485" cy="194.6502" rx="4.5401336" ry="5.3402765" fill="#e5e5e5"/>
      <ellipse cx="636.613" cy="194.6502" rx="4.5401336" ry="5.3402765" fill="#e5e5e5"/>
      <ellipse cx="653.5012" cy="194.6502" rx="4.5401336" ry="5.3402765" fill="#e5e5e5"/>
      <circle cx="582.7327" cy="21.11957" r="11.731848" fill="black"/>
      <circle cx="502.4244" cy="66.312434" r="11.731848" fill="#4040ff"/>
      <circle cx="707.2689" cy="-20.603667" r="11.731848" fill="#ff4040"/>
      <circle cx="673.4787" cy="190.885" r="11.731848" fill="#54d6ff"/>
      <circle cx="567.72836" cy="209.03884" r="11.731848" fill="#ff9300"/>
      <text transform="translate(574.5874 12.92357)" fill="white">
        <tspan font-family="Helvetica Neue" font-size="14" font-weight="500" fill="white" x="4.253275" y="13" textLength="7.784">1</tspan>
      </text>
      <text transform="translate(494.57023 58.116435)" fill="white">
        <tspan font-family="Helvetica Neue" font-size="14" font-weight="500" fill="white" x="4.253275" y="13" textLength="7.784">2</tspan>
      </text>
      <text transform="translate(699.1236 -28.799666)" fill="white">
        <tspan font-family="Helvetica Neue" font-size="14" font-weight="500" fill="white" x="4.253275" y="13" textLength="7.784">3</tspan>
      </text>
      <text transform="translate(664.7987 182.689)" fill="white">
        <tspan font-family="Helvetica Neue" font-size="14" font-weight="500" fill="white" x="4.253275" y="13" textLength="7.784">4</tspan>
      </text>
      <text transform="translate(559.5831 200.84284)" fill="white">
        <tspan font-family="Helvetica Neue" font-size="14" font-weight="500" fill="white" x="4.253275" y="13" textLength="7.784">5</tspan>
      </text>
      <circle cx="466.4316" cy="-57.43916" r="11.731848" fill="#ff40ff"/>
      <text transform="translate(458.2863 -65.63516)" fill="white">
        <tspan font-family="Helvetica Neue" font-size="14" font-weight="500" fill="white" x="4.253275" y="13" textLength="7.784">6</tspan>
      </text>
      <circle cx="633.59935" cy="-95.23183" r="11.731848" fill="#999"/>
      <text transform="translate(625.4541 -103.42783)" fill="white">
        <tspan font-family="Helvetica Neue" font-size="14" font-weight="500" fill="white" x="4.253275" y="13" textLength="7.784">7</tspan>
      </text>
    </g>
  </g>
</svg>
